X: 21376
T: Kerry Mills'
R: barndance
M: 4/4
K: Dmajor
|:B/|(3ABA B>A f2 f2|(3ABA B>A f2 f2|g>fe>d c2 d2|(3efe (3dcB (3ABA F>G|
A>AB>A f2 f2|A>AB>A f4|g>fe>d c>AB>c|e2 d2 d2- d3/2:|
|:f/|a>ab>a f2 f2|a>ab>a f2 f2|g>fe>d c2 d2|(3efe (3dcB A2 f>g|
a2 b>a f2 f2|a2 b>a f2 f2|g>fe>d c>AB>c|(3efe (e2 d2 d2- d3/2:|

